X: 1167
T: Crow's Nest., The
C:McFadden.
B:O'Neill's Music of Ireland
N:O'Neill's - 1167
Z:Transcribed by Stephen Foy (shf@access.digex.net)
Z:abc 1.6
M:9/8
R:slipjig
K:D
d2 A A2 G FED | A2 d d z g fed | c2 A A2 G FED | A2 B c2 B cde :|
d2 g f2 d e z c | A2 d d2 c dcA | B2 g f2 d e z c | A2 B c2 B cde |
d2 g f2 d e z c | A2 d d2 c dcA | efg f2 d e2 c | A2 B c2 B cde ||


